svg/color/sbuxon.svg

<svg width="40" height="40" viewBox="0 0 40 40" fill="none" xmlns="http://www.w3.org/2000/svg">
<g clip-path="url(#clip0_819_3661)">
<path d="M20 0C31.0457 0 40 8.9543 40 20C40 31.0457 31.0457 40 20 40C8.95431 40 7.90517e-06 31.0457 0 20C6.58765e-07 8.95431 8.95431 1.97595e-06 20 0Z" fill="#CCE0D9"/>
<path d="M26 6C30.4183 6 34 9.58172 34 14V26C34 30.4183 30.4183 34 26 34H14C9.58172 34 6 30.4183 6 26V14C6 9.58172 9.58172 6 14 6H26Z" fill="#006241"/>
<g clip-path="url(#clip1_819_3661)">
<path d="M21.0062 14.4001C20.9185 14.3844 20.4957 14.3134 20.0002 14.3134C19.5047 14.3134 19.0818 14.3841 18.9942 14.4001C18.9437 14.4091 18.9244 14.3597 18.9627 14.3311C18.9975 14.3054 19.9998 13.5425 19.9998 13.5425L21.0365 14.3311C21.0756 14.3597 21.0565 14.4091 21.0062 14.4001ZM19.2742 19.3539C19.2742 19.3539 19.2212 19.3729 19.2072 19.4196C19.4172 19.581 19.562 19.9482 20.0002 19.9482C20.4383 19.9482 20.5831 19.581 20.7927 19.4196C20.7791 19.3726 20.7261 19.3539 20.7261 19.3539C20.7261 19.3539 20.4517 19.4186 20.0002 19.4186C19.5487 19.4186 19.2742 19.3539 19.2742 19.3539ZM20.0002 18.736C19.8785 18.736 19.8518 18.69 19.7687 18.6903C19.6897 18.6907 19.5363 18.7537 19.5029 18.8114C19.5049 18.8409 19.5171 18.8688 19.5373 18.8904C19.7147 18.9171 19.7948 19.0158 20.0005 19.0158C20.2062 19.0158 20.2859 18.9171 20.4637 18.8904C20.4836 18.8687 20.4957 18.8409 20.498 18.8114C20.465 18.7537 20.3113 18.691 20.2319 18.6903C20.1486 18.6897 20.1216 18.736 20.0002 18.736ZM29.9892 20.6277C29.9765 20.8652 29.9554 21.1023 29.9258 21.3383C28.7933 21.5257 28.3886 20.5167 27.2285 20.5673C27.2978 20.8135 27.3542 21.0642 27.3976 21.3203C28.3542 21.3197 28.7397 22.214 29.8041 22.0822C29.7481 22.3557 29.6807 22.6255 29.603 22.8912C28.7613 22.9739 28.4649 22.1376 27.4909 22.1607C27.4989 22.2993 27.5032 22.4394 27.5032 22.5807L27.4992 22.8145L29.3906 23.5362C29.2917 23.8041 29.1815 24.0676 29.0602 24.3261C28.4916 24.2947 28.2956 23.5655 27.4306 23.6235C27.4047 23.8094 27.3719 23.9942 27.3322 24.1777C28.0835 24.125 28.2452 24.8166 28.7834 24.8727C28.6464 25.1223 28.499 25.366 28.3416 25.6032C28.0227 25.4324 27.7463 24.9173 27.1417 24.8856C27.2041 24.6937 27.2583 24.4992 27.3042 24.3027C26.768 24.3027 26.1547 24.0937 25.6406 23.6255C25.8072 22.6765 24.3344 21.7102 24.3344 21.0152C24.3344 20.2602 24.7162 19.8424 24.7162 18.8247C24.7162 18.0695 24.3494 17.2502 23.7962 16.6902C23.6933 16.585 23.5783 16.4924 23.4534 16.4145C23.9616 17.0434 24.3517 17.789 24.3517 18.6527C24.3517 19.611 23.9059 20.1168 23.9059 21.0015C23.9059 21.8858 25.1997 22.6512 25.1997 23.5632C25.1997 23.9219 25.085 24.2723 24.7069 24.9607C25.2877 25.5408 26.0444 25.8573 26.5326 25.8573C26.6909 25.8573 26.7759 25.809 26.8327 25.6846C26.8814 25.5771 26.9277 25.4684 26.9714 25.3587C27.4972 25.3792 27.738 25.857 28.0291 26.0477C27.8694 26.2622 27.7016 26.4692 27.5259 26.6696C27.3309 26.4535 27.0687 26.0901 26.6849 25.989C26.6162 26.1225 26.5436 26.2539 26.4672 26.3832C26.7977 26.4732 27.0237 26.8067 27.1988 27.0261C27.0099 27.2215 26.8133 27.4093 26.6092 27.5889C26.4816 27.3902 26.2828 27.1381 26.0601 27.0021C25.9778 27.1132 25.8923 27.2219 25.8037 27.3279C25.993 27.4562 26.1601 27.6873 26.2692 27.8757C26.0331 28.0651 25.7889 28.2449 25.5362 28.4129C25.4115 27.3969 24.0247 26.7006 24.3984 25.5218C24.2757 25.7296 24.1293 25.9893 24.1293 26.3022C24.1293 27.1555 25.0383 27.8327 25.1107 28.6807C24.9223 28.7934 24.7296 28.8994 24.5332 28.9998C24.5005 28.0677 23.5382 27.0477 23.5382 26.2828C23.5382 25.4288 24.6565 24.5712 24.6565 23.5632C24.6565 22.5544 23.3661 21.8562 23.3661 20.9705C23.3661 20.0855 23.9149 19.5763 23.9149 18.4419C23.9149 17.6109 23.5201 16.77 22.9102 16.2327C22.8022 16.1374 22.6958 16.0617 22.5681 15.9953C23.1433 16.6853 23.4767 17.3112 23.4767 18.2608C23.4767 19.3276 22.8479 19.9198 22.8479 20.9642C22.8479 22.0089 24.1143 22.5897 24.1143 23.5635C24.1143 24.5372 22.9356 25.3578 22.9356 26.3582C22.9356 27.2682 23.9746 28.1765 23.99 29.2562C23.7622 29.3555 23.5307 29.446 23.2961 29.5277C23.4281 28.4369 22.2586 27.3118 22.2586 26.4218C22.2586 25.4488 23.4814 24.6125 23.4814 23.5635C23.4814 22.5137 22.2383 22.0259 22.2383 20.9485C22.2383 19.8718 23.0009 19.2756 23.0009 18.0858C23.0009 17.1584 22.5431 16.3245 21.8742 15.8077L21.8318 15.7756C21.7688 15.7289 21.7168 15.7852 21.7615 15.8406C22.235 16.4318 22.4881 17.0297 22.4881 17.9151C22.4881 19.0034 21.6121 19.8878 21.6121 20.9422C21.6121 22.1867 22.7885 22.5424 22.7885 23.5635C22.7885 24.5842 21.5271 25.4008 21.5271 26.4846C21.5271 27.4896 22.7208 28.605 22.5161 29.7651C22.2753 29.8277 22.0323 29.8811 21.7875 29.9251C22.0116 28.4806 20.8405 27.4432 20.8405 26.4982C20.8405 25.4752 22.1469 24.5632 22.1469 23.5635C22.1469 22.6205 21.2092 22.3123 21.0859 21.3477C21.0689 21.216 20.9632 21.1182 20.8175 21.1426C20.6271 21.1772 20.383 21.3026 19.9995 21.3026C19.616 21.3026 19.372 21.1769 19.1812 21.1426C19.0358 21.1186 18.9301 21.2162 18.9131 21.3476C18.7901 22.3123 17.8517 22.6201 17.8517 23.5634C17.8517 24.5632 19.1585 25.4748 19.1585 26.4982C19.1585 27.4432 17.9874 28.4806 18.2112 29.9252C17.9664 29.8808 17.7234 29.8274 17.4826 29.7651C17.2778 28.605 18.4719 27.4896 18.4719 26.4846C18.4719 25.4008 17.2102 24.5842 17.2102 23.5635C17.2102 22.5424 18.3868 22.1867 18.3868 20.9422C18.3868 19.8878 17.5106 19.0038 17.5106 17.9151C17.5106 17.0301 17.7637 16.4322 18.2375 15.8407C18.2818 15.7852 18.2302 15.729 18.1668 15.7757L18.1248 15.8077C17.4565 16.3232 16.999 17.1571 16.999 18.0845C16.999 19.2742 17.7617 19.8704 17.7617 20.9472C17.7617 22.0242 16.5186 22.5122 16.5186 23.5622C16.5186 24.6112 17.7413 25.4475 17.7413 26.4205C17.7413 27.3108 16.5719 28.4356 16.7042 29.5263C16.4695 29.4446 16.238 29.3541 16.0101 29.2549C16.0257 28.1752 17.0641 27.2665 17.0641 26.3568C17.0641 25.3565 15.886 24.5358 15.886 23.5622C15.886 22.5884 17.1518 22.0076 17.1518 20.9628C17.1518 19.9185 16.5232 19.3262 16.5232 18.2595C16.5232 17.3098 16.8563 16.6839 17.4316 15.994C17.3035 16.0604 17.1974 16.1361 17.0897 16.2315C16.4799 16.7687 16.0854 17.6096 16.0854 18.4407C16.0854 19.575 16.6342 20.0842 16.6342 20.9692C16.6342 21.8548 15.3438 22.5531 15.3438 23.5618C15.3438 24.5698 16.4622 25.4278 16.4622 26.2815C16.4622 27.0467 15.4992 28.0667 15.4668 28.9985C15.2708 28.8986 15.0782 28.7921 14.8893 28.6793C14.962 27.8313 15.8707 27.1541 15.8707 26.3008C15.8707 25.988 15.7246 25.7283 15.6015 25.5205C15.9753 26.6992 14.5885 27.3955 14.4638 28.4116C14.2116 28.2436 13.967 28.0644 13.7308 27.8744C13.8396 27.6863 14.0067 27.4549 14.1963 27.3265C14.1075 27.2206 14.0219 27.1119 13.9399 27.0007C13.7168 27.1367 13.5177 27.3889 13.3904 27.5876C13.1866 27.4079 12.9901 27.2201 12.8012 27.0247C12.9762 26.8053 13.2023 26.4718 13.5328 26.3818C13.4563 26.2526 13.3837 26.1212 13.3151 25.9877C12.9312 26.0887 12.6688 26.4522 12.4741 26.6682C12.2982 26.4677 12.1304 26.2602 11.9709 26.0464C12.262 25.8556 12.5027 25.3775 13.0282 25.3575C13.0723 25.4668 13.1187 25.5756 13.1673 25.6832C13.224 25.8077 13.3094 25.856 13.4674 25.856C13.9556 25.856 14.7119 25.5395 15.2931 24.9593C14.915 24.271 14.8002 23.9206 14.8002 23.5618C14.8002 22.6502 16.0941 21.8848 16.0941 21.0002C16.0941 20.1156 15.6482 19.6097 15.6482 18.6513C15.6482 17.7877 16.0384 17.0421 16.5466 16.4132C16.4217 16.4911 16.3066 16.5837 16.2037 16.689C15.6506 17.2492 15.2837 18.0682 15.2837 18.8234C15.2837 19.8411 15.6659 20.2589 15.6659 21.0138C15.6659 21.7088 14.1927 22.6752 14.3594 23.6242C13.8452 24.0923 13.232 24.3014 12.6955 24.3014C12.742 24.4977 12.7962 24.6922 12.8579 24.8842C12.2537 24.9163 11.9772 25.4315 11.6581 25.6019C11.5005 25.3647 11.3531 25.1209 11.2162 24.8712C11.7542 24.8152 11.9162 24.1237 12.6678 24.1763C12.6281 23.9929 12.5951 23.808 12.5691 23.6222C11.7041 23.5642 11.5081 24.2937 10.9395 24.3247C10.8182 24.0662 10.7079 23.8027 10.6091 23.5347L12.5007 22.8132L12.4967 22.5794C12.4967 22.4381 12.5011 22.298 12.5087 22.1593C11.5347 22.1366 11.2382 22.9727 10.3967 22.8899C10.3186 22.6231 10.2516 22.3532 10.1958 22.0809C11.2597 22.2126 11.6454 21.3183 12.6025 21.319C12.6454 21.0652 12.7017 20.8138 12.7712 20.566C11.6112 20.5157 11.2062 21.5247 10.0742 21.337C10.0444 21.101 10.0233 20.864 10.0108 20.6264C11.327 20.7734 11.8205 19.6914 13.0189 19.8237C13.1315 19.5387 13.2626 19.2614 13.4114 18.9935C11.9089 18.7293 11.3987 19.9858 10.0002 19.7927C10.1512 14.4004 14.5705 10.0748 20.0002 10.0748C25.4298 10.0748 29.8491 14.4004 30.0002 19.7942C28.6013 19.9872 28.0912 18.7311 26.5889 18.9949C26.7367 19.2616 26.8681 19.5387 26.9814 19.8252C28.1792 19.6925 28.6727 20.7747 29.9892 20.6277ZM15.7 16.4318C14.9633 16.1307 14.0717 16.2002 13.31 16.6893C13.192 15.9807 12.8075 15.3512 12.26 14.9713C12.1843 14.919 12.1056 14.9687 12.1126 15.0563C12.2283 16.5536 11.353 17.8537 10.2766 18.9965C11.386 19.3299 12.3303 17.9014 13.7692 18.3999C14.2862 17.6307 14.9408 16.9635 15.7 16.4318ZM20.0002 15.5262C19.0715 15.5262 18.2935 16.0514 18.0898 16.73C18.0742 16.782 18.0955 16.8157 18.1555 16.7887C18.3226 16.7137 18.5126 16.6776 18.719 16.6776C19.0978 16.6776 19.4316 16.8167 19.629 17.0587C19.7164 17.3468 19.7237 17.764 19.625 18.0021C19.469 17.9671 19.4129 17.8464 19.2606 17.8464C19.1082 17.8464 18.9902 17.9534 18.7317 17.9534C18.4736 17.9534 18.4433 17.8313 18.2735 17.8313C18.0738 17.8313 18.0371 18.0372 18.0371 18.2692C18.0371 19.3039 18.9882 20.7277 19.9998 20.7277C21.0112 20.7277 21.9622 19.3039 21.9622 18.2692C21.9622 18.0371 21.9145 17.8383 21.7058 17.8113C21.6017 17.8863 21.5061 17.9534 21.268 17.9534C21.0095 17.9534 20.9382 17.8464 20.7861 17.8464C20.6024 17.8464 20.6207 18.2339 20.4027 18.2556C20.2572 17.9061 20.2502 17.4579 20.371 17.0587C20.5687 16.8167 20.9022 16.6776 21.281 16.6776C21.4874 16.6776 21.6787 16.714 21.8442 16.7887C21.9045 16.8157 21.9255 16.7817 21.9098 16.73C21.7065 16.0514 20.9288 15.5262 20.0002 15.5262ZM21.4787 17.0107C21.256 17.0107 20.9948 17.0791 20.8308 17.2618C20.8138 17.3115 20.8138 17.3855 20.8378 17.4349C21.2416 17.2966 21.5977 17.2912 21.7698 17.4836C21.8615 17.4002 21.8908 17.3252 21.8908 17.2382C21.8908 17.1037 21.7542 17.0107 21.4787 17.0107ZM18.2305 17.4836C18.4252 17.2886 18.8357 17.2969 19.2622 17.4542C19.2809 17.2422 18.9011 17.0104 18.5216 17.0104C18.2458 17.0104 18.1095 17.1034 18.1095 17.2382C18.1095 17.3252 18.1388 17.4006 18.2305 17.4836ZM24.6308 13.981C23.8976 14.0333 23.2607 14.2851 22.7455 14.7046C22.9642 14.0843 23.242 13.5418 23.5942 13.0159C22.6605 13.115 21.8798 13.4564 21.3103 14.04L20.8645 12.8712L21.8542 11.9972L20.529 11.9035L20.0002 10.6711L19.471 11.9036L18.1458 11.9972L19.1355 12.8712L18.69 14.04C18.1202 13.4564 17.3395 13.115 16.4065 13.0159C16.758 13.5422 17.0357 14.0847 17.2545 14.7046C16.7397 14.2847 16.1027 14.0329 15.3695 13.981C15.8093 14.5465 16.1991 15.1493 16.4878 15.7977C16.5206 15.8707 16.5906 15.8947 16.6662 15.857C17.6707 15.3578 18.8024 15.077 19.9998 15.077C21.1973 15.077 22.3287 15.3582 23.3337 15.857C23.4094 15.8947 23.4794 15.8707 23.5117 15.7977C23.8009 15.1493 24.1906 14.5465 24.6308 13.981ZM26.2317 18.4006C27.67 17.9021 28.6147 19.3302 29.7241 18.9972C28.6477 17.8544 27.7727 16.5542 27.8884 15.057C27.8954 14.9693 27.8163 14.9193 27.741 14.972C27.1932 15.3518 26.8087 15.9813 26.691 16.6899C25.929 16.2007 25.0377 16.1311 24.301 16.4325C25.0601 16.9642 25.7146 17.6314 26.2317 18.4006Z" fill="white"/>
</g>
</g>
<defs>
<clipPath id="clip0_819_3661">
<rect width="40" height="40" fill="white"/>
</clipPath>
<clipPath id="clip1_819_3661">
<rect width="20" height="20" fill="white" transform="translate(10 10)"/>
</clipPath>
</defs>
</svg>

<svg xmlns="http://www.w3.org/2000/svg" width="40" height="40" fill="none" viewBox="0 0 40 40"><g clip-path="url(#sbuxon_svg-a)"><path fill="#CCE0D9" d="M20 0c11.046 0 20 8.954 20 20s-8.954 20-20 20S0 31.046 0 20 8.954 0 20 0"/><path fill="#006241" d="M26 6a8 8 0 0 1 8 8v12a8 8 0 0 1-8 8H14a8 8 0 0 1-8-8V14a8 8 0 0 1 8-8z"/><g clip-path="url(#sbuxon_svg-b)"><path fill="#fff" d="M21.006 14.4A6 6 0 0 0 20 14.313c-.495 0-.918.071-1.006.087-.05.01-.07-.04-.031-.069L20 13.543l1.037.788c.039.029.02.078-.03.07m-1.732 4.954s-.053.019-.067.066c.21.161.355.528.793.528s.583-.367.793-.528c-.014-.047-.067-.066-.067-.066s-.274.065-.726.065-.726-.065-.726-.065m.726-.618c-.122 0-.148-.046-.231-.046-.08 0-.233.064-.266.121q.003.046.034.08c.178.026.258.125.463.125s.286-.099.464-.126a.13.13 0 0 0 .034-.079c-.033-.057-.187-.12-.266-.12-.083-.001-.11.045-.232.045m9.99 1.892q-.02.356-.064.71c-1.133.188-1.537-.821-2.697-.77q.103.368.169.752c.956 0 1.342.894 2.406.762q-.084.41-.201.81c-.842.082-1.138-.754-2.112-.731q.012.207.012.42l-.004.233 1.892.722q-.15.402-.33.79c-.57-.031-.765-.76-1.63-.703q-.04.279-.099.555c.752-.053.913.639 1.451.695q-.206.375-.441.73c-.32-.17-.596-.686-1.2-.717q.093-.288.162-.583c-.536 0-1.15-.21-1.663-.678.166-.948-1.307-1.915-1.307-2.61 0-.755.382-1.173.382-2.19 0-.755-.367-1.575-.92-2.135a2 2 0 0 0-.343-.276c.509.63.899 1.375.899 2.239 0 .958-.446 1.464-.446 2.349 0 .884 1.294 1.65 1.294 2.561 0 .359-.115.71-.493 1.398.58.58 1.337.896 1.826.896.158 0 .243-.048.3-.172q.073-.162.138-.326c.526.02.767.498 1.058.689q-.24.32-.503.622c-.195-.217-.457-.58-.841-.681a8 8 0 0 1-.218.394c.33.09.557.424.732.643q-.285.293-.59.563c-.127-.199-.326-.45-.549-.587a7 7 0 0 1-.256.326c.189.128.356.36.465.548q-.354.285-.733.537c-.125-1.016-1.511-1.712-1.138-2.891-.122.208-.269.467-.269.78 0 .854.91 1.53.982 2.379a10 10 0 0 1-.578.319c-.033-.932-.995-1.952-.995-2.717 0-.854 1.119-1.712 1.119-2.72s-1.29-1.707-1.29-2.592c0-.886.548-1.395.548-2.53 0-.83-.395-1.671-1.005-2.208a1.7 1.7 0 0 0-.342-.238c.575.69.909 1.316.909 2.266 0 1.067-.63 1.659-.63 2.703 0 1.045 1.267 1.626 1.267 2.6 0 .973-1.178 1.794-1.178 2.794 0 .91 1.039 1.819 1.054 2.898q-.343.15-.694.272c.132-1.091-1.037-2.216-1.037-3.106 0-.973 1.222-1.81 1.222-2.858 0-1.05-1.243-1.538-1.243-2.616 0-1.076.763-1.672.763-2.862a2.9 2.9 0 0 0-1.127-2.278l-.042-.032c-.063-.047-.115.01-.07.065.473.59.726 1.189.726 2.074 0 1.088-.876 1.973-.876 3.027 0 1.245 1.177 1.6 1.177 2.622 0 1.02-1.262 1.837-1.262 2.92 0 1.006 1.194 2.121.99 3.281q-.363.094-.73.16c.225-1.444-.947-2.482-.947-3.427 0-1.023 1.307-1.935 1.307-2.934 0-.944-.938-1.252-1.061-2.216-.017-.132-.123-.23-.268-.205-.19.034-.435.16-.819.16s-.627-.126-.818-.16c-.145-.024-.25.073-.268.205-.123.964-1.061 1.272-1.061 2.215 0 1 1.306 1.912 1.306 2.935 0 .945-1.17 1.983-.947 3.427a10 10 0 0 1-.728-.16c-.205-1.16.989-2.275.989-3.28 0-1.084-1.262-1.9-1.262-2.921 0-1.022 1.177-1.377 1.177-2.622 0-1.054-.876-1.938-.876-3.027 0-.885.253-1.483.727-2.074.044-.056-.008-.112-.071-.065l-.042.032A2.9 2.9 0 0 0 17 18.085c0 1.19.763 1.786.763 2.863s-1.243 1.565-1.243 2.615 1.222 1.886 1.222 2.858c0 .89-1.17 2.016-1.037 3.106a10 10 0 0 1-.694-.271c.016-1.08 1.054-1.988 1.054-2.898 0-1-1.178-1.821-1.178-2.795s1.266-1.554 1.266-2.6c0-1.043-.629-1.636-.629-2.703 0-.95.333-1.575.909-2.265a1.6 1.6 0 0 0-.342.238 3.03 3.03 0 0 0-1.005 2.209c0 1.134.55 1.643.55 2.528 0 .886-1.291 1.584-1.291 2.593s1.118 1.866 1.118 2.72c0 .765-.963 1.785-.995 2.717a10 10 0 0 1-.578-.32c.073-.848.982-1.525.982-2.378 0-.313-.146-.573-.27-.78.374 1.178-1.013 1.874-1.137 2.89a10 10 0 0 1-.733-.537c.109-.188.276-.42.465-.547A7 7 0 0 1 13.94 27c-.223.136-.422.388-.55.587q-.305-.27-.589-.563c.175-.22.401-.553.732-.643q-.116-.194-.218-.394c-.384.1-.646.464-.84.68q-.266-.3-.504-.622c.291-.19.532-.668 1.057-.688q.066.164.14.325c.056.125.141.173.3.173.488 0 1.244-.317 1.825-.897-.378-.688-.493-1.038-.493-1.397 0-.912 1.294-1.677 1.294-2.562s-.446-1.39-.446-2.349c0-.863.39-1.609.899-2.238q-.188.117-.343.276c-.553.56-.92 1.38-.92 2.134 0 1.018.382 1.436.382 2.19 0 .696-1.473 1.662-1.307 2.611-.514.468-1.127.677-1.664.677q.07.295.163.583c-.604.032-.88.547-1.2.718a10 10 0 0 1-.442-.73c.538-.057.7-.748 1.452-.696a8 8 0 0 1-.099-.554c-.865-.058-1.06.672-1.63.703a10 10 0 0 1-.33-.79l1.892-.722-.004-.234q0-.21.012-.42c-.974-.022-1.27.814-2.112.73a10 10 0 0 1-.201-.808c1.064.132 1.45-.763 2.406-.762q.065-.381.17-.753c-1.16-.05-1.566.959-2.698.771a10 10 0 0 1-.063-.71c1.316.146 1.81-.936 3.008-.803q.17-.428.392-.83c-1.502-.265-2.012.992-3.41.799.15-5.393 4.57-9.718 10-9.718s9.848 4.325 10 9.72c-1.4.192-1.91-1.064-3.412-.8q.223.4.392.83c1.198-.133 1.692.95 3.008.803M15.7 16.432c-.737-.301-1.628-.232-2.39.257-.118-.708-.503-1.338-1.05-1.718-.076-.052-.154-.002-.147.085.115 1.498-.76 2.798-1.836 3.94 1.109.334 2.053-1.095 3.492-.596a7.5 7.5 0 0 1 1.931-1.968m4.3-.906c-.928 0-1.706.525-1.91 1.204-.016.052.006.086.066.059q.252-.112.563-.111c.379 0 .713.139.91.38.087.289.095.706-.004.944-.156-.035-.212-.156-.364-.156-.153 0-.27.107-.53.107-.257 0-.288-.122-.458-.122-.2 0-.236.206-.236.438 0 1.035.951 2.459 1.963 2.459 1.011 0 1.962-1.424 1.962-2.459 0-.232-.047-.43-.256-.458a.63.63 0 0 1-.438.142c-.259 0-.33-.107-.482-.107-.184 0-.165.388-.383.41-.146-.35-.153-.798-.032-1.197.198-.242.531-.381.91-.381.206 0 .398.036.563.11.06.028.081-.006.066-.058-.204-.679-.981-1.204-1.91-1.204m1.479 1.485c-.223 0-.484.068-.648.25a.25.25 0 0 0 .007.174c.404-.138.76-.144.932.049.091-.084.12-.159.12-.246 0-.134-.136-.227-.411-.227m-3.248.473c.194-.195.605-.187 1.031-.03.019-.212-.36-.444-.74-.444-.276 0-.412.093-.412.228 0 .087.029.163.12.246m6.4-3.503c-.733.052-1.37.304-1.886.724.22-.62.497-1.163.85-1.69-.934.1-1.715.441-2.285 1.025l-.445-1.169.99-.874-1.326-.094L20 10.672l-.529 1.233-1.325.093.99.874-.446 1.169c-.57-.584-1.35-.925-2.283-1.024.351.526.629 1.069.848 1.689-.515-.42-1.152-.672-1.885-.724.44.566.83 1.168 1.118 1.817.033.073.103.097.178.059a7.5 7.5 0 0 1 3.334-.78c1.197 0 2.329.281 3.334.78.075.038.145.014.178-.06a9 9 0 0 1 1.119-1.816m1.6 4.42c1.439-.499 2.384.93 3.493.596-1.076-1.143-1.951-2.443-1.836-3.94.007-.088-.072-.138-.147-.085-.548.38-.932 1.01-1.05 1.718-.762-.49-1.653-.559-2.39-.258a7.5 7.5 0 0 1 1.93 1.969"/></g></g><defs><clipPath id="sbuxon_svg-a"><path fill="#fff" d="M0 0h40v40H0z"/></clipPath><clipPath id="sbuxon_svg-b"><path fill="#fff" d="M10 10h20v20H10z"/></clipPath></defs></svg>
